Final project/assets/images/logo.svg

<svg width="125" height="45" viewBox="0 0 125 45" fill="none" xmlns="http://www.w3.org/2000/svg">
<path d="M4.875 12.5V30.5H1.48828V12.5H4.875ZM14.5078 27.6406V21.9922C14.5078 21.5859 14.4414 21.2383 14.3086 20.9492C14.1758 20.6523 13.9688 20.4219 13.6875 20.2578C13.4141 20.0938 13.0586 20.0117 12.6211 20.0117C12.2461 20.0117 11.9219 20.0781 11.6484 20.2109C11.375 20.3359 11.1641 20.5195 11.0156 20.7617C10.8672 20.9961 10.793 21.2734 10.793 21.5938H7.41797C7.41797 21.0547 7.54297 20.543 7.79297 20.0586C8.04297 19.5742 8.40625 19.1484 8.88281 18.7812C9.35938 18.4062 9.92578 18.1133 10.582 17.9023C11.2461 17.6914 11.9883 17.5859 12.8086 17.5859C13.793 17.5859 14.668 17.75 15.4336 18.0781C16.1992 18.4062 16.8008 18.8984 17.2383 19.5547C17.6836 20.2109 17.9062 21.0312 17.9062 22.0156V27.4414C17.9062 28.1367 17.9492 28.707 18.0352 29.1523C18.1211 29.5898 18.2461 29.9727 18.4102 30.3008V30.5H15C14.8359 30.1562 14.7109 29.7266 14.625 29.2109C14.5469 28.6875 14.5078 28.1641 14.5078 27.6406ZM14.9531 22.7773L14.9766 24.6875H13.0898C12.6445 24.6875 12.2578 24.7383 11.9297 24.8398C11.6016 24.9414 11.332 25.0859 11.1211 25.2734C10.9102 25.4531 10.7539 25.6641 10.6523 25.9062C10.5586 26.1484 10.5117 26.4141 10.5117 26.7031C10.5117 26.9922 10.5781 27.2539 10.7109 27.4883C10.8438 27.7148 11.0352 27.8945 11.2852 28.0273C11.5352 28.1523 11.8281 28.2148 12.1641 28.2148C12.6719 28.2148 13.1133 28.1133 13.4883 27.9102C13.8633 27.707 14.1523 27.457 14.3555 27.1602C14.5664 26.8633 14.6758 26.582 14.6836 26.3164L15.5742 27.7461C15.4492 28.0664 15.2773 28.3984 15.0586 28.7422C14.8477 29.0859 14.5781 29.4102 14.25 29.7148C13.9219 30.0117 13.5273 30.2578 13.0664 30.4531C12.6055 30.6406 12.0586 30.7344 11.4258 30.7344C10.6211 30.7344 9.89062 30.5742 9.23438 30.2539C8.58594 29.9258 8.07031 29.4766 7.6875 28.9062C7.3125 28.3281 7.125 27.6719 7.125 26.9375C7.125 26.2734 7.25 25.6836 7.5 25.168C7.75 24.6523 8.11719 24.2188 8.60156 23.8672C9.09375 23.5078 9.70703 23.2383 10.4414 23.0586C11.1758 22.8711 12.0273 22.7773 12.9961 22.7773H14.9531ZM23.8828 20.5859V30.5H20.5078V17.8203H23.6836L23.8828 20.5859ZM27.7031 17.7383L27.6445 20.8672C27.4805 20.8438 27.2812 20.8242 27.0469 20.8086C26.8203 20.7852 26.6133 20.7734 26.4258 20.7734C25.9492 20.7734 25.5352 20.8359 25.1836 20.9609C24.8398 21.0781 24.5508 21.2539 24.3164 21.4883C24.0898 21.7227 23.918 22.0078 23.8008 22.3438C23.6914 22.6797 23.6289 23.0625 23.6133 23.4922L22.9336 23.2812C22.9336 22.4609 23.0156 21.707 23.1797 21.0195C23.3438 20.3242 23.582 19.7188 23.8945 19.2031C24.2148 18.6875 24.6055 18.2891 25.0664 18.0078C25.5273 17.7266 26.0547 17.5859 26.6484 17.5859C26.8359 17.5859 27.0273 17.6016 27.2227 17.6328C27.418 17.6562 27.5781 17.6914 27.7031 17.7383ZM37.0898 17.8203H40.1484V30.0781C40.1484 31.2344 39.8906 32.2148 39.375 33.0195C38.8672 33.832 38.1562 34.4453 37.2422 34.8594C36.3281 35.2812 35.2656 35.4922 34.0547 35.4922C33.5234 35.4922 32.9609 35.4219 32.3672 35.2812C31.7812 35.1406 31.2188 34.9219 30.6797 34.625C30.1484 34.3281 29.7031 33.9531 29.3438 33.5L30.832 31.5078C31.2227 31.9609 31.6758 32.3125 32.1914 32.5625C32.707 32.8203 33.2773 32.9492 33.9023 32.9492C34.5117 32.9492 35.0273 32.8359 35.4492 32.6094C35.8711 32.3906 36.1953 32.0664 36.4219 31.6367C36.6484 31.2148 36.7617 30.7031 36.7617 30.1016V20.75L37.0898 17.8203ZM28.5586 24.3125V24.0664C28.5586 23.0977 28.6758 22.2188 28.9102 21.4297C29.1523 20.6328 29.4922 19.9492 29.9297 19.3789C30.375 18.8086 30.9141 18.3672 31.5469 18.0547C32.1797 17.7422 32.8945 17.5859 33.6914 17.5859C34.5352 17.5859 35.2422 17.7422 35.8125 18.0547C36.3828 18.3672 36.8516 18.8125 37.2188 19.3906C37.5859 19.9609 37.8711 20.6367 38.0742 21.418C38.2852 22.1914 38.4492 23.0391 38.5664 23.9609V24.5C38.4492 25.3828 38.2734 26.2031 38.0391 26.9609C37.8047 27.7188 37.4961 28.3828 37.1133 28.9531C36.7305 29.5156 36.2539 29.9531 35.6836 30.2656C35.1211 30.5781 34.4492 30.7344 33.668 30.7344C32.8867 30.7344 32.1797 30.5742 31.5469 30.2539C30.9219 29.9336 30.3867 29.4844 29.9414 28.9062C29.4961 28.3281 29.1523 27.6484 28.9102 26.8672C28.6758 26.0859 28.5586 25.2344 28.5586 24.3125ZM31.9336 24.0664V24.3125C31.9336 24.8359 31.9844 25.3242 32.0859 25.7773C32.1875 26.2305 32.3438 26.6328 32.5547 26.9844C32.7734 27.3281 33.043 27.5977 33.3633 27.793C33.6914 27.9805 34.0781 28.0742 34.5234 28.0742C35.1406 28.0742 35.6445 27.9453 36.0352 27.6875C36.4258 27.4219 36.7188 27.0586 36.9141 26.5977C37.1094 26.1367 37.2227 25.6055 37.2539 25.0039V23.4688C37.2383 22.9766 37.1719 22.5352 37.0547 22.1445C36.9375 21.7461 36.7734 21.4062 36.5625 21.125C36.3516 20.8438 36.0781 20.625 35.7422 20.4688C35.4062 20.3125 35.0078 20.2344 34.5469 20.2344C34.1016 20.2344 33.7148 20.3359 33.3867 20.5391C33.0664 20.7344 32.7969 21.0039 32.5781 21.3477C32.3672 21.6914 32.207 22.0977 32.0977 22.5664C31.9883 23.0273 31.9336 23.5273 31.9336 24.0664ZM48.6094 30.7344C47.625 30.7344 46.7422 30.5781 45.9609 30.2656C45.1797 29.9453 44.5156 29.5039 43.9688 28.9414C43.4297 28.3789 43.0156 27.7266 42.7266 26.9844C42.4375 26.2344 42.293 25.4375 42.293 24.5938V24.125C42.293 23.1641 42.4297 22.2852 42.7031 21.4883C42.9766 20.6914 43.3672 20 43.875 19.4141C44.3906 18.8281 45.0156 18.3789 45.75 18.0664C46.4844 17.7461 47.3125 17.5859 48.2344 17.5859C49.1328 17.5859 49.9297 17.7344 50.625 18.0312C51.3203 18.3281 51.9023 18.75 52.3711 19.2969C52.8477 19.8438 53.207 20.5 53.4492 21.2656C53.6914 22.0234 53.8125 22.8672 53.8125 23.7969V25.2031H43.7344V22.9531H50.4961V22.6953C50.4961 22.2266 50.4102 21.8086 50.2383 21.4414C50.0742 21.0664 49.8242 20.7695 49.4883 20.5508C49.1523 20.332 48.7227 20.2227 48.1992 20.2227C47.7539 20.2227 47.3711 20.3203 47.0508 20.5156C46.7305 20.7109 46.4688 20.9844 46.2656 21.3359C46.0703 21.6875 45.9219 22.1016 45.8203 22.5781C45.7266 23.0469 45.6797 23.5625 45.6797 24.125V24.5938C45.6797 25.1016 45.75 25.5703 45.8906 26C46.0391 26.4297 46.2461 26.8008 46.5117 27.1133C46.7852 27.4258 47.1133 27.668 47.4961 27.8398C47.8867 28.0117 48.3281 28.0977 48.8203 28.0977C49.4297 28.0977 49.9961 27.9805 50.5195 27.7461C51.0508 27.5039 51.5078 27.1406 51.8906 26.6562L53.5312 28.4375C53.2656 28.8203 52.9023 29.1875 52.4414 29.5391C51.9883 29.8906 51.4414 30.1797 50.8008 30.4062C50.1602 30.625 49.4297 30.7344 48.6094 30.7344ZM59.1094 20.5859V30.5H55.7344V17.8203H58.9102L59.1094 20.5859ZM62.9297 17.7383L62.8711 20.8672C62.707 20.8438 62.5078 20.8242 62.2734 20.8086C62.0469 20.7852 61.8398 20.7734 61.6523 20.7734C61.1758 20.7734 60.7617 20.8359 60.4102 20.9609C60.0664 21.0781 59.7773 21.2539 59.543 21.4883C59.3164 21.7227 59.1445 22.0078 59.0273 22.3438C58.918 22.6797 58.8555 23.0625 58.8398 23.4922L58.1602 23.2812C58.1602 22.4609 58.2422 21.707 58.4062 21.0195C58.5703 20.3242 58.8086 19.7188 59.1211 19.2031C59.4414 18.6875 59.832 18.2891 60.293 18.0078C60.7539 17.7266 61.2812 17.5859 61.875 17.5859C62.0625 17.5859 62.2539 17.6016 62.4492 17.6328C62.6445 17.6562 62.8047 17.6914 62.9297 17.7383ZM71.3203 17.8203V20.2109H63.9375V17.8203H71.3203ZM65.7656 14.6914H69.1406V26.6797C69.1406 27.0469 69.1875 27.3281 69.2812 27.5234C69.3828 27.7188 69.5312 27.8555 69.7266 27.9336C69.9219 28.0039 70.168 28.0391 70.4648 28.0391C70.6758 28.0391 70.8633 28.0312 71.0273 28.0156C71.1992 27.9922 71.3438 27.9688 71.4609 27.9453L71.4727 30.4297C71.1836 30.5234 70.8711 30.5977 70.5352 30.6523C70.1992 30.707 69.8281 30.7344 69.4219 30.7344C68.6797 30.7344 68.0312 30.6133 67.4766 30.3711C66.9297 30.1211 66.5078 29.7227 66.2109 29.1758C65.9141 28.6289 65.7656 27.9102 65.7656 27.0195V14.6914ZM76.5352 12.5V30.5H73.1602V12.5H76.5352ZM76.0547 23.7148H75.1289C75.1367 22.832 75.2539 22.0195 75.4805 21.2773C75.707 20.5273 76.0312 19.8789 76.4531 19.332C76.875 18.7773 77.3789 18.3477 77.9648 18.043C78.5586 17.7383 79.2148 17.5859 79.9336 17.5859C80.5586 17.5859 81.125 17.6758 81.6328 17.8555C82.1484 18.0273 82.5898 18.3086 82.957 18.6992C83.332 19.082 83.6211 19.5859 83.8242 20.2109C84.0273 20.8359 84.1289 21.5938 84.1289 22.4844V30.5H80.7305V22.4609C80.7305 21.8984 80.6484 21.457 80.4844 21.1367C80.3281 20.8086 80.0977 20.5781 79.793 20.4453C79.4961 20.3047 79.1289 20.2344 78.6914 20.2344C78.207 20.2344 77.793 20.3242 77.4492 20.5039C77.1133 20.6836 76.8438 20.9336 76.6406 21.2539C76.4375 21.5664 76.2891 21.9336 76.1953 22.3555C76.1016 22.7773 76.0547 23.2305 76.0547 23.7148ZM93.5391 27.6406V21.9922C93.5391 21.5859 93.4727 21.2383 93.3398 20.9492C93.207 20.6523 93 20.4219 92.7188 20.2578C92.4453 20.0938 92.0898 20.0117 91.6523 20.0117C91.2773 20.0117 90.9531 20.0781 90.6797 20.2109C90.4062 20.3359 90.1953 20.5195 90.0469 20.7617C89.8984 20.9961 89.8242 21.2734 89.8242 21.5938H86.4492C86.4492 21.0547 86.5742 20.543 86.8242 20.0586C87.0742 19.5742 87.4375 19.1484 87.9141 18.7812C88.3906 18.4062 88.957 18.1133 89.6133 17.9023C90.2773 17.6914 91.0195 17.5859 91.8398 17.5859C92.8242 17.5859 93.6992 17.75 94.4648 18.0781C95.2305 18.4062 95.832 18.8984 96.2695 19.5547C96.7148 20.2109 96.9375 21.0312 96.9375 22.0156V27.4414C96.9375 28.1367 96.9805 28.707 97.0664 29.1523C97.1523 29.5898 97.2773 29.9727 97.4414 30.3008V30.5H94.0312C93.8672 30.1562 93.7422 29.7266 93.6562 29.2109C93.5781 28.6875 93.5391 28.1641 93.5391 27.6406ZM93.9844 22.7773L94.0078 24.6875H92.1211C91.6758 24.6875 91.2891 24.7383 90.9609 24.8398C90.6328 24.9414 90.3633 25.0859 90.1523 25.2734C89.9414 25.4531 89.7852 25.6641 89.6836 25.9062C89.5898 26.1484 89.543 26.4141 89.543 26.7031C89.543 26.9922 89.6094 27.2539 89.7422 27.4883C89.875 27.7148 90.0664 27.8945 90.3164 28.0273C90.5664 28.1523 90.8594 28.2148 91.1953 28.2148C91.7031 28.2148 92.1445 28.1133 92.5195 27.9102C92.8945 27.707 93.1836 27.457 93.3867 27.1602C93.5977 26.8633 93.707 26.582 93.7148 26.3164L94.6055 27.7461C94.4805 28.0664 94.3086 28.3984 94.0898 28.7422C93.8789 29.0859 93.6094 29.4102 93.2812 29.7148C92.9531 30.0117 92.5586 30.2578 92.0977 30.4531C91.6367 30.6406 91.0898 30.7344 90.457 30.7344C89.6523 30.7344 88.9219 30.5742 88.2656 30.2539C87.6172 29.9258 87.1016 29.4766 86.7188 28.9062C86.3438 28.3281 86.1562 27.6719 86.1562 26.9375C86.1562 26.2734 86.2812 25.6836 86.5312 25.168C86.7812 24.6523 87.1484 24.2188 87.6328 23.8672C88.125 23.5078 88.7383 23.2383 89.4727 23.0586C90.207 22.8711 91.0586 22.7773 92.0273 22.7773H93.9844ZM102.844 20.5273V30.5H99.4688V17.8203H102.633L102.844 20.5273ZM102.352 23.7148H101.438C101.438 22.7773 101.559 21.9336 101.801 21.1836C102.043 20.4258 102.383 19.7812 102.82 19.25C103.258 18.7109 103.777 18.3008 104.379 18.0195C104.988 17.7305 105.668 17.5859 106.418 17.5859C107.012 17.5859 107.555 17.6719 108.047 17.8438C108.539 18.0156 108.961 18.2891 109.312 18.6641C109.672 19.0391 109.945 19.5352 110.133 20.1523C110.328 20.7695 110.426 21.5234 110.426 22.4141V30.5H107.027V22.4023C107.027 21.8398 106.949 21.4023 106.793 21.0898C106.637 20.7773 106.406 20.5586 106.102 20.4336C105.805 20.3008 105.438 20.2344 105 20.2344C104.547 20.2344 104.152 20.3242 103.816 20.5039C103.488 20.6836 103.215 20.9336 102.996 21.2539C102.785 21.5664 102.625 21.9336 102.516 22.3555C102.406 22.7773 102.352 23.2305 102.352 23.7148Z" fill="black"/>
<path d="M121.348 16.0093C121.169 16.1965 120.966 16.3511 120.738 16.4731C120.51 16.5871 120.27 16.6603 120.018 16.6929C119.765 16.7173 119.525 16.6766 119.297 16.5708C119.078 16.465 118.886 16.3145 118.724 16.1191C118.374 15.7122 118.199 15.3013 118.199 14.8862C118.199 14.4712 118.264 14.1619 118.394 13.9585C118.532 13.7469 118.703 13.576 118.907 13.4458C119.297 13.1935 119.664 13.0674 120.005 13.0674C120.355 13.0674 120.624 13.0918 120.811 13.1406C121.006 13.1895 121.185 13.2708 121.348 13.3848C121.747 13.6533 121.946 13.9829 121.946 14.3735C121.946 14.756 121.889 15.0775 121.775 15.3379C121.67 15.5902 121.527 15.814 121.348 16.0093ZM118.846 29.2173C119.057 29.2173 119.163 29.3556 119.163 29.6323C119.163 29.9985 118.996 30.377 118.663 30.7676C118.174 31.3372 117.519 31.6221 116.697 31.6221C115.753 31.6221 115.106 31.2396 114.756 30.4746C114.626 30.2061 114.561 29.8805 114.561 29.498C114.561 29.1156 114.626 28.6924 114.756 28.2285C114.895 27.7565 115.062 27.2642 115.257 26.7515C115.46 26.2306 115.68 25.7057 115.916 25.1768L116.563 23.6387C117.035 22.4912 117.271 21.7344 117.271 21.3682C117.271 21.002 117.23 20.7619 117.149 20.6479C117.076 20.5259 116.994 20.4323 116.905 20.3672L116.661 20.1963C116.579 20.1393 116.539 20.0417 116.539 19.9033C116.539 19.7568 116.591 19.6185 116.697 19.4883C116.811 19.3581 116.958 19.2441 117.137 19.1465C117.503 18.9593 117.93 18.8657 118.418 18.8657C119.615 18.8657 120.213 19.179 120.213 19.8057C120.213 20.5381 120.022 21.3763 119.639 22.3203C119.257 23.2562 118.931 24.013 118.663 24.5908L117.93 26.2754C117.393 27.5124 117.125 28.4035 117.125 28.9487C117.125 29.3068 117.304 29.4858 117.662 29.4858C118.012 29.4858 118.276 29.4411 118.455 29.3516C118.634 29.262 118.764 29.2173 118.846 29.2173Z" fill="black"/>
</svg>

<svg width="125" height="45" fill="none" xmlns="http://www.w3.org/2000/svg"><path d="M4.875 12.5v18H1.488v-18h3.387Zm9.633 15.14v-5.648c0-.406-.067-.754-.2-1.043a1.483 1.483 0 0 0-.62-.691c-.274-.164-.63-.246-1.067-.246-.375 0-.7.066-.973.199a1.408 1.408 0 0 0-.632.55 1.522 1.522 0 0 0-.223.833H7.418c0-.54.125-1.051.375-1.535.25-.485.613-.91 1.09-1.278a5.383 5.383 0 0 1 1.699-.879c.664-.21 1.406-.316 2.227-.316.984 0 1.859.164 2.625.492.765.328 1.367.82 1.804 1.477.446.656.668 1.476.668 2.46v5.426c0 .696.043 1.266.13 1.711.085.438.21.82.374 1.149v.199H15c-.164-.344-.29-.773-.375-1.29a10.626 10.626 0 0 1-.117-1.57Zm.445-4.863.024 1.91H13.09c-.445 0-.832.051-1.16.153a2.16 2.16 0 0 0-.809.433c-.21.18-.367.391-.469.633-.093.242-.14.508-.14.797 0 .29.066.55.199.785.133.227.324.407.574.54.25.124.543.187.88.187.507 0 .948-.102 1.323-.305s.664-.453.867-.75c.211-.297.32-.578.329-.844l.89 1.43c-.125.32-.297.652-.515.996a4.65 4.65 0 0 1-.809.973 4.17 4.17 0 0 1-1.184.738c-.46.188-1.007.281-1.64.281-.805 0-1.535-.16-2.192-.48a3.994 3.994 0 0 1-1.546-1.348c-.375-.578-.563-1.234-.563-1.968 0-.665.125-1.254.375-1.77s.617-.95 1.102-1.3c.492-.36 1.105-.63 1.84-.81.734-.187 1.585-.28 2.554-.28h1.957Zm8.93-2.191V30.5h-3.375V17.82h3.176l.199 2.766Zm3.82-2.848-.058 3.13a8.16 8.16 0 0 0-.598-.06 6.089 6.089 0 0 0-.621-.035c-.477 0-.89.063-1.242.188a2.216 2.216 0 0 0-.868.527c-.226.235-.398.52-.515.856a4.2 4.2 0 0 0-.188 1.148l-.68-.21c0-.821.083-1.575.247-2.262.164-.696.402-1.301.715-1.817.32-.515.71-.914 1.171-1.195.461-.281.989-.422 1.582-.422.188 0 .38.016.575.047.195.023.355.058.48.105Zm9.387.082h3.058v12.258c0 1.156-.257 2.137-.773 2.942-.508.812-1.219 1.425-2.133 1.84-.914.421-1.976.632-3.187.632-.532 0-1.094-.07-1.688-.21a6.748 6.748 0 0 1-1.687-.657 4.458 4.458 0 0 1-1.336-1.125l1.488-1.992c.39.453.844.805 1.36 1.055a3.772 3.772 0 0 0 1.71.386c.61 0 1.125-.113 1.547-.34a2.25 2.25 0 0 0 .973-.972c.226-.422.34-.934.34-1.535V20.75l.328-2.93Zm-8.531 6.492v-.246c0-.968.117-1.847.351-2.636.242-.797.582-1.48 1.02-2.051a4.635 4.635 0 0 1 1.617-1.324c.633-.313 1.348-.47 2.144-.47.844 0 1.551.157 2.121.47.57.312 1.04.758 1.407 1.336.367.57.652 1.246.855 2.027.211.773.375 1.621.492 2.543v.539a15.02 15.02 0 0 1-.527 2.46 7.56 7.56 0 0 1-.926 1.993c-.383.563-.86 1-1.43 1.313-.562.312-1.234.468-2.015.468-.781 0-1.488-.16-2.121-.48a4.737 4.737 0 0 1-1.606-1.348 6.42 6.42 0 0 1-1.03-2.039 8.857 8.857 0 0 1-.352-2.555Zm3.375-.246v.247c0 .523.05 1.011.152 1.464.102.453.258.856.469 1.207.218.344.488.614.808.809.328.188.715.281 1.16.281.618 0 1.121-.129 1.512-.387a2.43 2.43 0 0 0 .88-1.09c.194-.46.308-.992.339-1.593v-1.535a5.183 5.183 0 0 0-.2-1.325 3.176 3.176 0 0 0-.492-1.019c-.21-.281-.484-.5-.82-.656-.336-.157-.734-.235-1.195-.235-.445 0-.832.102-1.16.305-.32.195-.59.465-.809.809-.21.343-.371.75-.48 1.218-.11.461-.164.961-.164 1.5Zm16.675 6.668c-.984 0-1.867-.156-2.648-.468a5.814 5.814 0 0 1-1.992-1.325 5.883 5.883 0 0 1-1.242-1.957 6.589 6.589 0 0 1-.434-2.39v-.469c0-.96.137-1.84.41-2.637a6.202 6.202 0 0 1 1.172-2.074 5.147 5.147 0 0 1 1.875-1.348c.734-.32 1.563-.48 2.484-.48.899 0 1.696.148 2.391.445a4.685 4.685 0 0 1 1.746 1.266c.477.547.836 1.203 1.078 1.969.242.757.364 1.601.364 2.53v1.407H43.733v-2.25h6.762v-.258c0-.468-.086-.886-.258-1.254a1.99 1.99 0 0 0-.75-.89c-.336-.219-.765-.328-1.289-.328-.445 0-.828.097-1.148.293-.32.195-.582.468-.785.82a4.467 4.467 0 0 0-.446 1.242c-.093.469-.14.985-.14 1.547v.469c0 .508.07.976.21 1.406.15.43.356.8.622 1.113.273.313.601.555.984.727.39.172.832.258 1.324.258a4.11 4.11 0 0 0 1.7-.352 3.678 3.678 0 0 0 1.37-1.09l1.641 1.782c-.265.382-.629.75-1.09 1.101-.453.352-1 .64-1.64.867-.64.219-1.371.328-2.192.328Zm10.5-10.148V30.5h-3.375V17.82h3.176l.2 2.766Zm3.82-2.848-.058 3.13a8.164 8.164 0 0 0-.598-.06 6.087 6.087 0 0 0-.62-.035c-.477 0-.891.063-1.243.188a2.215 2.215 0 0 0-.867.527c-.227.235-.398.52-.516.856-.109.336-.172.718-.187 1.148l-.68-.21c0-.821.082-1.575.246-2.262.164-.696.403-1.301.715-1.817.32-.515.711-.914 1.172-1.195.46-.281.988-.422 1.582-.422.188 0 .379.016.574.047.196.023.356.058.48.105Zm8.391.082v2.39h-7.382v-2.39h7.382Zm-5.554-3.129h3.375V26.68c0 .367.046.648.14.843.102.196.25.332.446.41.195.07.441.106.738.106.21 0 .398-.008.562-.023.172-.024.317-.047.434-.07l.012 2.484c-.29.093-.602.168-.938.222a6.954 6.954 0 0 1-1.113.082c-.742 0-1.39-.12-1.945-.363a2.68 2.68 0 0 1-1.266-1.195c-.297-.547-.445-1.266-.445-2.156V14.69Zm10.77-2.191v18H73.16v-18h3.375Zm-.481 11.215h-.926a8.579 8.579 0 0 1 .352-2.438c.226-.75.55-1.398.972-1.945a4.49 4.49 0 0 1 1.512-1.289 4.248 4.248 0 0 1 1.969-.457c.625 0 1.191.09 1.699.27a3.16 3.16 0 0 1 1.324.843c.375.383.664.887.867 1.512.203.625.305 1.383.305 2.273V30.5H80.73v-8.04c0-.562-.083-1.003-.247-1.323a1.356 1.356 0 0 0-.691-.692c-.297-.14-.664-.21-1.102-.21-.484 0-.898.09-1.242.269-.336.18-.605.43-.808.75-.204.312-.352.68-.446 1.101-.093.422-.14.875-.14 1.36Zm17.484 3.926v-5.649c0-.406-.066-.754-.2-1.043a1.483 1.483 0 0 0-.62-.691c-.274-.164-.63-.246-1.067-.246-.375 0-.699.066-.972.199a1.407 1.407 0 0 0-.633.55 1.522 1.522 0 0 0-.223.833H86.45c0-.54.125-1.051.375-1.535.25-.485.614-.91 1.09-1.278a5.381 5.381 0 0 1 1.7-.879c.663-.21 1.405-.316 2.226-.316.984 0 1.86.164 2.625.492.766.328 1.367.82 1.804 1.477.446.656.668 1.476.668 2.46v5.426c0 .696.044 1.266.13 1.711.085.438.21.82.374 1.149v.199h-3.41c-.164-.344-.289-.773-.375-1.29a10.626 10.626 0 0 1-.117-1.57Zm.445-4.864.024 1.91H92.12c-.445 0-.832.051-1.16.153a2.16 2.16 0 0 0-.809.433c-.21.18-.367.391-.468.633-.094.242-.141.508-.141.797 0 .29.066.55.2.785.132.227.323.407.573.54.25.124.543.187.88.187.507 0 .948-.102 1.323-.305s.665-.453.868-.75c.21-.297.32-.578.328-.844l.89 1.43c-.124.32-.296.652-.515.996-.211.344-.48.668-.809.973a4.17 4.17 0 0 1-1.183.738c-.461.188-1.008.281-1.641.281-.805 0-1.535-.16-2.191-.48a3.994 3.994 0 0 1-1.547-1.348c-.375-.578-.563-1.234-.563-1.968 0-.665.125-1.254.375-1.77s.617-.95 1.102-1.3c.492-.36 1.105-.63 1.84-.81.734-.187 1.586-.28 2.554-.28h1.957Zm8.86-2.25V30.5h-3.375V17.82h3.164l.211 2.707Zm-.492 3.188h-.914c0-.938.121-1.781.363-2.531.242-.758.582-1.403 1.019-1.934.438-.54.957-.95 1.559-1.23.609-.29 1.289-.434 2.039-.434.594 0 1.137.086 1.629.258.492.172.914.445 1.265.82.36.375.633.871.821 1.488.195.617.293 1.371.293 2.262V30.5h-3.399v-8.098c0-.562-.078-1-.234-1.312a1.317 1.317 0 0 0-.691-.656c-.297-.133-.664-.2-1.102-.2-.453 0-.848.09-1.184.27-.328.18-.601.43-.82.75-.211.312-.371.68-.48 1.101-.11.422-.164.875-.164 1.36ZM121.348 16.01a2.415 2.415 0 0 1-.61.463 2.242 2.242 0 0 1-.72.22 1.37 1.37 0 0 1-.721-.122 1.7 1.7 0 0 1-.573-.452c-.35-.407-.525-.818-.525-1.233 0-.415.065-.724.195-.927.138-.212.309-.383.513-.513.39-.252.757-.379 1.098-.379.35 0 .619.025.806.074.195.049.374.13.537.244.399.268.598.598.598.989 0 .382-.057.704-.171.964a2.286 2.286 0 0 1-.427.671Zm-2.502 13.207c.211 0 .317.139.317.415 0 .366-.167.745-.5 1.136-.489.57-1.144.854-1.966.854-.944 0-1.591-.382-1.941-1.147-.13-.269-.195-.595-.195-.977s.065-.806.195-1.27c.139-.472.306-.964.501-1.477.203-.52.423-1.045.659-1.574l.647-1.538c.472-1.148.708-1.905.708-2.27 0-.367-.041-.607-.122-.721a.939.939 0 0 0-.244-.28l-.244-.172c-.082-.057-.122-.154-.122-.293 0-.146.052-.284.158-.415.114-.13.261-.244.44-.341.366-.188.793-.281 1.281-.281 1.197 0 1.795.313 1.795.94 0 .732-.191 1.57-.574 2.514a54.786 54.786 0 0 1-.976 2.27l-.733 1.685c-.537 1.237-.805 2.129-.805 2.674 0 .358.179.537.537.537.35 0 .614-.045.793-.134.179-.09.309-.135.391-.135Z" fill="#000"/></svg>
